X: 78
T: 74. DOWN YONDER
B: Sam Bayard, "Hill Country Tunes" 1944 #74
N: Copied from manuscript of Denune Provance, Peachen, PA, Sept 21, 1943.
S: Learned from traditional players about Dunbar.
R: polka, reel
M: 4/4
L: 1/8
Z: 2010 John Chambers <jc:trillian.mit.edu>
K: C
e4 dc3 | eged cc'b_b | a4 gf3 | ac'ag f4 |
ecdc ecdc | eg2e g4 | ecdc ecdc | eg2e g4 |
^ff2 f2 ed2 | ^ff2 f2 ed2 | g2^fg =fed2 | g2^fg =fed2 |
e4 dc3 | eged cc'b_b | a4 gf3 ac'ag f4 |
ecdc ecdc | eg2e gz ^fg | a4 b2g2 | c'2 g ^f "_Da Capo"=fy |]
w: | | | *** [sic~in~MS]

%%sep 2 1 500
%%sep 1 1 500

